X:1
T:Title
%%score { ( 1 3 ) | ( 2 4 ) }
L:1/8
M:3/4
K:Db
V:1 treble nm="Grand Piano"
V:3 treble 
V:2 bass 
V:4 bass 
V:1
 z2 z[Q:1/4=86] [DF] [CEG][B,_F=G] | [A,FA]3 [Fd] [_Fc][FB] |[M:3/8] [FA]3 | FBA |[M:3/4] G3 E AG | %5
[M:3/8] F3 | F[EG][_F=G] |[M:3/4] [FA]3 [Fd] [_Fc][FB] |[M:3/8] [A,FA]3 | [A,DF][B,=DB][B,DA] | %10
[M:3/4] [B,EG]3 [B,CG] [A,CF][K:bass][G,CE] |[M:3/8] [F,D]3 | FAd |[M:3/4] c4 z2 |[M:3/8] [FA]3 | %15
 F_F=F |[M:3/4] [CA]4 z2 |[M:3/8] [DF]3 | FAd |[M:3/4] c4 z2 |[M:3/8] [FA]3 | FBA | %22
[M:3/4] [EG]4 z2[K:bass] |[M:7/16] D/-D/-D/-D-<D |] %24
V:2
 z2 z D, D,D, | D,3 [D,A,] [D,=G,][D,G,] |[M:3/8] [D,A,]3 | [D,A,D][G,D][F,A,D] | %4
[M:3/4] [E,A,C]3 [E,A,C][K:treble] [A,CF][A,CE] |[M:3/8][K:bass] [D,A,D]3 | [D,D][D,C][D,B,] | %7
[M:3/4] [D,A,]3 [D,A,] [D,=G,][D,G,] |[M:3/8] D,3 | D,B,,B,, |[M:3/4] E,3 A,, A,,A,, |[M:3/8] D,3 | %12
 z3 |[M:3/4][K:treble] [A,EG][A,E] [A,E]E AG |[M:3/8][K:bass] D,D,D, | DDD | %16
[M:3/4] A,,A,, A,,C CC |[M:3/8] D,D,D, | z3 |[M:3/4][K:treble] [A,EG][A,E] [A,E]E AG | %20
[M:3/8][K:bass] D,D,D, | D=DD |[M:3/4] E,E, E,A,, A,,A,, |[M:7/16] z G,F,3/2 |] %24
V:3
 x6 | x6 |[M:3/8] x3 | x3 |[M:3/4] x6 |[M:3/8] x3 | x3 |[M:3/4] x6 |[M:3/8] x3 | x3 | %10
[M:3/4] x5[K:bass] x |[M:3/8] x3 | x3 |[M:3/4] z G GG cB |[M:3/8] DDD | x3 |[M:3/4] A,A, A,B E_F | %17
[M:3/8] A,A,A, | x3 |[M:3/4] z G GG cB |[M:3/8] DDD | x3 | %22
[M:3/4] B,B, B,[B,CG] [A,CF][K:bass][G,CE] |[M:7/16] F,B,A,3/2 |] %24
V:4
 x6 | x6 |[M:3/8] x3 | x3 |[M:3/4] x4[K:treble] x2 |[M:3/8][K:bass] x3 | x3 |[M:3/4] x6 | %8
[M:3/8] x3 | x3 |[M:3/4] x6 |[M:3/8] x3 | x3 |[M:3/4][K:treble] x6 |[M:3/8][K:bass] x3 | x3 | %16
[M:3/4] x6 |[M:3/8] x3 | x3 |[M:3/4][K:treble] x6 |[M:3/8][K:bass] x3 | x3 |[M:3/4] x6 | %23
[M:7/16] D,/-D,/-D,/-D,-<D, |] %24

